X:42
T:Jigs simple chords 68
M:3/4
L:1/8
K:Em
d[BG,B,D] dd gd | d[eC,E,G,] fg dB | G[A2A,2^C2E2G2]A a2 | g[fD,F,A,] dd d2 | c[BG,B,D] dd gd |
d[eC,E,G,] fg dB | G[AA,CE] Bc de | f[g5D,5F,5A,5C5] | d[BG,B,D] dd gd |
d[eC,E,G,] fg dB | G[A2A,2^C2E2G2]A a2 | g[fD,F,A,] dd d2 | c[BG,B,D] dd gd |
d[eC,E,G,] fg dB | G[AA,CE] Bc de | f[g5D,5F,5A,5C5] | f[eE,G,B,] fg BB |
B[eE,G,B,] fg B2 | B[eE,G,B,] fg a2 | g[fD,F,A,] dd de | f[g2G,2B,2D2]g de |
f[gG,B,D] fe dc | B[AA,CE] Bc de | f[g5G,5B,5D5] | f[eE,G,B,] fg BB |
B[eE,G,B,] fg B2 | B[eE,G,B,] fg a2 | g[fD,F,A,] dd de | f[g2G,2B,2D2]g de |
f[gG,B,D] fe dc | B[AA,CE] Bc de | f[g5G,5B,5D5] |


